X: 1
T: J\"aniksen polska
T: J\"aniksen laulu
O: Padasjoki, Finland
S: printed copy of unknown origin
N: "Muistiin merkinnyt K. J. B\"o\"ok 1890-luvulla"
Q: 1/4=120
M: 3/4
L: 1/16
K: Dm
|:\
"Dm"d2de f2f2 "Gm"e2d2 | e2f2 g2g2 "A"f2e2 |\
a2gg a2e2 "Dm"f2d2 | "A"e2^c2 "Dm"d4 d4 :|
|:\
"Dm"A2dd d2^c2 d2c2 | "Gm"d2e2 "F"f2f2 f2e2 |\
"A"a2aa "C"g2g2 "F"f2fd | "A"e2^c2 "Dm"d4 !fine!d4 :|
|:\
"Dm"D2DE F2F2 "Gm"E2D2 | E2F2 G2G2 "A"F2E2 |\
A2GG A2E2 "Dm"F2D2 | "A"E2^C2 "Dm"D4 D4 :|
|:\
"Dm"A,2DD D2^C2 D2C2 | "Gm"D2E2 "F"F2F2 F2E2 |\
"A"A2AA "C"G2G2 "F"F2FD | "A"E2^C2 "Dm"D4 D4 :|
